!!!COM: Beethoven
!!!OTL: Acht Variationen uber das Trio "Tandeln und Scherzen" aus der Oper: Soliman oder die drei Sultaninnen von Sussmayer
!!!Variation: Variation 4 b
**function	**harm	**kern	**kern
*	*	*clefF4	*clefG2
*	*	*k[b-]	*k[b-]
*M3/8	*M3/8	*M3/8	*M3/8
*F:	*F:	*F:	*F:
=105	=105	=105	=105
4.T	4.Ib	48AALLL	16r
.	.	48C	.
.	.	48FJJJ	.
.	.	16r	48ALLL
.	.	.	48c
.	.	.	48fJJJ
.	.	48ALLL	16r
.	.	48c	.
.	.	48fJJJ	.
.	.	16r	48aLLL
.	.	.	48cc
.	.	.	48ffJJJ
*	*	*clefG2	*
.	.	48aLLL	16r
.	.	48cc	.
.	.	48ffJJJ	.
.	.	16r	48aaLLL
.	.	.	48ccc
.	.	.	48fffJJJ
=106	=106	=106	=106
4T	4IV	4b- 4ff	16r
.	.	.	(16dddLL
.	.	.	16fff
.	.	.	16ddd
8T	8Ib	8a 8ff	16bb
.	.	.	16cccJJ)
=107	=107	=107	=107
*	*	*clefF4	*
4.T	4.Ib	48AALLL	16r
.	.	48C	.
.	.	48FJJJ	.
.	.	16r	48ALLL
.	.	.	48c
.	.	.	48fJJJ
.	.	48ALLL	16r
.	.	48c	.
.	.	48fJJJ	.
.	.	16r	48aLLL
.	.	.	48cc
.	.	.	48ffJJJ
*	*	*clefG2	*
.	.	48aLLL	16r
.	.	48cc	.
.	.	48ffJJJ	.
.	.	16r	48aaLLL
.	.	.	48ccc
.	.	.	48fffJJJ
=108	=108	=108	=108
4T	4IV	4b- 4ff	16r
.	.	.	(16dddLL
.	.	.	16fff
.	.	.	16ddd
8T	8Ib	8a 8ff	16bb
.	.	.	16cccJJ)
=109	=109	=109	=109
4.T	4.V7	16r	(48bb-LLL
.	.	.	48gg
.	.	.	48eeJ
.	.	(48b-LLL	16cc'JJ)
.	.	48g	.
.	.	48eJJJ	.
.	.	16c')	(48b-LLL
.	.	.	48g
.	.	.	48eJ
*	*	*clefF4	*
.	.	(48B-LLL	16c'JJ)
.	.	48G	.
.	.	48EJJJ	.
.	.	16C')	(48B-LLL
.	.	.	48G
.	.	.	48EJJ
.	.	(48BB-LLL	16C'JJ)
.	.	48GG	.
.	.	48EEJJJ	.
=110	=110	=110	=110
4.T	4.V7	16CC')	(48B-LLL
.	.	.	48G
.	.	.	48EJJ
.	.	(48BB-LLL	16C'JJ)
.	.	48GG	.
.	.	48EEJJJ	.
.	.	16CC')	16r
.	.	8.BB-;	8.C; 8.E; 8.G;
=111	=111	=111	=111
4.T	4.Ib	48AAALLL	16r
.	.	48CC	.
.	.	48FFJJJ	.
.	.	16r	48AALLL
.	.	.	48C
.	.	.	48FJJJ
.	.	48AALLL	16r
.	.	48C	.
.	.	48FJJJ	.
.	.	16r	48ALLL
.	.	.	48c
.	.	.	48fJJJ
.	.	48ALLL	16r
.	.	48c	.
.	.	48fJJJ	.
.	.	16r	48aLLL
.	.	.	48cc
.	.	.	48ffJJJ
=112	=112	=112	=112
4.P	4.iib	48BB-LLL	16r
.	.	48D	.
.	.	48GJJJ	.
.	.	16r	48B-LLL
.	.	.	48d
.	.	.	48gJJJ
*	*	*clefG2	*
.	.	16B- 16d 16g	16r
.	.	16r	8.dd 8.ddd
.	.	8r	.
=113	=113	=113	=113
4D	4Cc	8c 8f 8a	(16cccLL
.	.	.	16aa
.	.	8r	16ff
.	.	.	16cc
*	*	*clefF4	*
8D	8V7	8C 8G	16b-
.	.	.	16eJJ)
=114	=114	=114	=114
4.T	4.I	8F 8A	(16fLL
.	.	.	16a
.	.	8r	16cc
.	.	.	16ff
.	.	8r	16aa
.	.	.	16cccJJ)
*-	*-	*-	*-
